lib/functional/design/vignette.svg

<svg xmlns="http://www.w3.org/2000/svg" fill="none" stroke="currentColor" aria-hidden="true" viewBox="0 0 32 32"><g id="Icon-Vignette"><g clip-path="url(#clip0_8_2)"><g id="size=md (32px)"><g id="Vignette"><path id="Vector" stroke-linecap="round" stroke-linejoin="round" stroke-width="2" d="M27 6H5C4.44772 6 4 6.44772 4 7V25C4 25.5523 4.44772 26 5 26H27C27.5523 26 28 25.5523 28 25V7C28 6.44772 27.5523 6 27 6Z"/><path id="Vector_2" stroke-linecap="round" stroke-linejoin="round" stroke-width="2" d="M16 22C20.4183 22 24 19.3137 24 16C24 12.6863 20.4183 10 16 10C11.5817 10 8 12.6863 8 16C8 19.3137 11.5817 22 16 22Z"/></g></g></g></g><defs><clipPath id="clip0_8_2"><rect width="32" height="32" fill="white" rx="5"/></clipPath></defs></svg>

<svg xmlns="http://www.w3.org/2000/svg" fill="none" stroke="currentColor" aria-hidden="true" viewBox="0 0 32 32"><path stroke-linecap="round" stroke-linejoin="round" stroke-width="2" d="M27 6H5a1 1 0 0 0-1 1v18a1 1 0 0 0 1 1h22a1 1 0 0 0 1-1V7a1 1 0 0 0-1-1Z"/><path stroke-linecap="round" stroke-linejoin="round" stroke-width="2" d="M16 22c4.418 0 8-2.686 8-6s-3.582-6-8-6-8 2.686-8 6 3.582 6 8 6Z"/></svg>
